X: 41610
T: Up In The Air
R: jig
M: 6/8
K: Bminor
FBB FBB|cBc AFE|FBB FBB|cBA B2A|
FBB FBB|c3 ABc|dcd fed|cBA B2A:|
|:dcd ede|fdB BAF|dcd ede|fdB BAc|
d3 ede|f3 f2e|fgf f2e|dBB B2A:|

